;FLAVOR:Marlin
;TIME:1826
;Filament used: 1.30648m
;Layer height: 0.2
;MINX:79.644
;MINY:79.645
;MINZ:0.3
;MAXX:120.356
;MAXY:120.356
;MAXZ:12.9
;Generated with Cura_SteamEngine 4.11.0
M140 S60
M105
M190 S60
M104 S220
M105
M109 S220
M82 ;absolute extrusion mode
G28 ;Home
G1 Z15.0 F6000 ;Move the platform down 15mm
;Prime the extruder
G92 E0
G1 F200 E3
G92 E0
G92 E0
G92 E0
G1 F1500 E-6.5
;LAYER_COUNT:64
;LAYER:0
M107
G0 F2100 X85.553 Y85.662 Z0.3
;TYPE:SKIRT
G1 F1500 E0
G1 X86.406 Y84.855 E0.04394
G1 X86.845 Y84.466 E0.06588
G1 X87.021 Y84.321 E0.07442
G1 X87.966 Y83.588 E0.11917
G1 X88.43 Y83.252 E0.1406
G1 X88.615 Y83.128 E0.14894
G1 X89.624 Y82.493 E0.19355
G1 X90.132 Y82.195 E0.21558
G1 X90.338 Y82.084 E0.22434
G1 X91.385 Y81.561 E0.26813
G1 X91.922 Y81.315 E0.29023
G1 X92.132 Y81.227 E0.29875
G1 X93.233 Y80.806 E0.34286
G1 X93.796 Y80.612 E0.36514
G1 X94.017 Y80.544 E0.37379
G1 X95.142 Y80.237 E0.41743
G1 X95.738 Y80.095 E0.44035
G1 X95.965 Y80.049 E0.44902
G1 X97.082 Y79.859 E0.49141
G1 X97.698 Y79.774 E0.51468
G1 X97.933 Y79.75 E0.52352
G1 X99.101 Y79.668 E0.56733
G1 X99.684 Y79.646 E0.58916
G1 X99.915 Y79.645 E0.5978
G1 X101.092 Y79.678 E0.64186
G1 X101.695 Y79.715 E0.66447
G1 X101.927 Y79.737 E0.67319
G1 X103.078 Y79.883 E0.7166
G1 X103.669 Y79.976 E0.73899
G1 X103.906 Y80.023 E0.74803
G1 X105.049 Y80.285 E0.7919
G1 X105.608 Y80.431 E0.81352
G1 X105.832 Y80.498 E0.82227
G1 X106.951 Y80.872 E0.86642
G1 X107.472 Y81.063 E0.88718
G1 X107.704 Y81.158 E0.89656
G1 X108.815 Y81.656 E0.94212
G1 X109.31 Y81.896 E0.9627
G1 X109.525 Y82.01 E0.97181
G1 X110.541 Y82.592 E1.01562
G1 X111.049 Y82.903 E1.03791
G1 X111.256 Y83.039 E1.04717
G1 X112.193 Y83.705 E1.09019
G1 X112.671 Y84.068 E1.11265
G1 X112.856 Y84.218 E1.12156
G1 X113.734 Y84.981 E1.16508
G1 X114.176 Y85.391 E1.18764
G1 X114.338 Y85.553 E1.19621
G1 X115.145 Y86.406 E1.24015
G1 X115.534 Y86.844 E1.26207
G1 X115.678 Y87.019 E1.27055
G1 X116.412 Y87.965 E1.31535
G1 X116.748 Y88.43 E1.33682
G1 X116.872 Y88.615 E1.34515
G1 X117.507 Y89.624 E1.38976
G1 X117.805 Y90.132 E1.4118
G1 X117.916 Y90.338 E1.42056
G1 X118.439 Y91.385 E1.46435
G1 X118.685 Y91.922 E1.48645
G1 X118.773 Y92.132 E1.49497
G1 X119.194 Y93.233 E1.53907
G1 X119.392 Y93.809 E1.56186
G1 X119.458 Y94.025 E1.57032
G1 X119.763 Y95.14 E1.61357
G1 X119.9 Y95.712 E1.63558
G1 X119.947 Y95.944 E1.64443
G1 X120.145 Y97.112 E1.68876
G1 X120.225 Y97.689 E1.71056
G1 X120.25 Y97.93 E1.71962
G1 X120.332 Y99.106 E1.76373
G1 X120.355 Y99.69 E1.7856
G1 X120.356 Y99.926 E1.79443
G1 X120.324 Y101.075 E1.83744
G1 X120.285 Y101.705 E1.86106
G1 X120.263 Y101.93 E1.86952
G1 X120.105 Y103.178 E1.91659
G1 X120.008 Y103.775 E1.93922
G1 X119.961 Y104.009 E1.94815
G1 X119.737 Y104.969 E1.98504
G1 X119.707 Y105.088 E1.98963
G1 X119.559 Y105.64 E2.01101
G1 X119.494 Y105.857 E2.01949
G1 X119.134 Y106.935 E2.06202
G1 X118.941 Y107.461 E2.08298
G1 X118.848 Y107.689 E2.0922
G1 X118.345 Y108.813 E2.13827
G1 X118.104 Y109.31 E2.15894
G1 X117.99 Y109.525 E2.16805
G1 X117.408 Y110.541 E2.21186
G1 X117.097 Y111.049 E2.23414
G1 X116.961 Y111.256 E2.24341
G1 X116.295 Y112.193 E2.28643
G1 X115.932 Y112.671 E2.30889
G1 X115.781 Y112.856 E2.31782
G1 X115.017 Y113.735 E2.3614
G1 X114.614 Y114.17 E2.38359
G1 X114.452 Y114.334 E2.39221
G1 X113.595 Y115.145 E2.43636
G1 X113.156 Y115.534 E2.45831
G1 X112.981 Y115.678 E2.46679
G1 X112.035 Y116.412 E2.51159
G1 X111.57 Y116.748 E2.53306
G1 X111.385 Y116.872 E2.54139
G1 X110.376 Y117.507 E2.586
G1 X109.868 Y117.805 E2.60804
G1 X109.662 Y117.916 E2.61679
G1 X108.615 Y118.439 E2.66058
G1 X108.078 Y118.685 E2.68269
G1 X107.868 Y118.773 E2.6912
G1 X106.767 Y119.194 E2.73531
G1 X106.203 Y119.388 E2.75763
G1 X105.987 Y119.454 E2.76608
G1 X104.833 Y119.769 E2.81084
G1 X104.299 Y119.898 E2.83139
G1 X104.06 Y119.946 E2.84052
G1 X102.869 Y120.148 E2.88572
G1 X102.305 Y120.226 E2.90702
G1 X102.063 Y120.251 E2.91612
G1 X100.908 Y120.331 E2.95945
G1 X100.312 Y120.355 E2.98176
G1 X100.073 Y120.356 E2.99071
G1 X98.925 Y120.324 E3.03368
G1 X98.309 Y120.286 E3.05677
G1 X98.082 Y120.264 E3.06531
G1 X96.905 Y120.115 E3.1097
G1 X96.365 Y120.031 E3.13015
G1 X96.117 Y119.983 E3.1396
G1 X94.954 Y119.716 E3.18425
G1 X94.359 Y119.559 E3.20727
G1 X94.143 Y119.494 E3.21571
G1 X93.065 Y119.134 E3.25824
G1 X92.525 Y118.936 E3.27976
G1 X92.296 Y118.842 E3.28902
G1 X91.185 Y118.344 E3.33458
G1 X90.688 Y118.103 E3.35525
G1 X90.473 Y117.989 E3.36435
G1 X89.459 Y117.408 E3.40808
G1 X88.951 Y117.097 E3.43037
G1 X88.744 Y116.96 E3.43966
G1 X87.806 Y116.293 E3.48272
G1 X87.328 Y115.931 E3.50516
G1 X87.143 Y115.781 E3.51407
G1 X86.265 Y115.018 E3.55759
G1 X85.825 Y114.609 E3.58007
G1 X85.662 Y114.447 E3.58867
G1 X84.855 Y113.594 E3.63261
G1 X84.466 Y113.156 E3.65453
G1 X84.322 Y112.981 E3.66301
G1 X83.588 Y112.035 E3.70781
G1 X83.252 Y111.571 E3.72925
G1 X83.127 Y111.384 E3.73766
G1 X82.493 Y110.376 E3.78222
G1 X82.194 Y109.865 E3.80437
G1 X82.083 Y109.66 E3.8131
G1 X81.561 Y108.615 E3.8568
G1 X81.314 Y108.077 E3.87896
G1 X81.226 Y107.866 E3.88751
G1 X80.806 Y106.767 E3.93153
G1 X80.608 Y106.191 E3.95432
G1 X80.542 Y105.975 E3.96277
G1 X80.237 Y104.86 E4.00603
G1 X80.099 Y104.287 E4.02808
G1 X80.051 Y104.051 E4.03709
G1 X79.854 Y102.886 E4.0813
G1 X79.774 Y102.306 E4.10321
G1 X79.75 Y102.068 E4.11216
G1 X79.668 Y100.894 E4.1562
G1 X79.645 Y100.31 E4.17807
G1 X79.644 Y100.074 E4.1869
G1 X79.676 Y98.925 E4.22991
G1 X79.714 Y98.309 E4.253
G1 X79.736 Y98.082 E4.26153
G1 X79.885 Y96.905 E4.30592
G1 X79.904 Y96.771 E4.31099
G1 X80.005 Y96.153 E4.33442
G1 X80.123 Y95.597 E4.35569
G1 X80.146 Y95.498 E4.35949
G1 X80.293 Y94.914 E4.38202
G1 X80.44 Y94.362 E4.4034
G1 X80.508 Y94.135 E4.41226
G1 X80.875 Y93.04 E4.45548
G1 X81.07 Y92.511 E4.47657
G1 X81.163 Y92.284 E4.48575
G1 X81.649 Y91.2 E4.5302
G1 X81.897 Y90.688 E4.55149
G1 X82.012 Y90.47 E4.56071
G1 X82.592 Y89.458 E4.60436
G1 X82.91 Y88.941 E4.62707
G1 X83.043 Y88.74 E4.63609
G1 X83.705 Y87.808 E4.67886
G1 X84.068 Y87.329 E4.70135
G1 X84.219 Y87.144 E4.71029
G1 X84.983 Y86.265 E4.75386
G1 X85.391 Y85.825 E4.77632
G1 X85.553 Y85.662 E4.78491
G0 F2100 X85.759 Y85.88
G1 F1500 X86.612 Y85.073 E4.82885
G1 X87.043 Y84.691 E4.8504
G1 X87.205 Y84.558 E4.85824
G1 X88.15 Y83.825 E4.90299
G1 X88.604 Y83.496 E4.92397
G1 X88.774 Y83.382 E4.93163
G1 X89.783 Y82.747 E4.97624
G1 X90.283 Y82.455 E4.99791
G1 X90.472 Y82.353 E5.00594
G1 X91.519 Y81.83 E5.04973
G1 X92.046 Y81.588 E5.07143
G1 X92.239 Y81.508 E5.07925
G1 X93.34 Y81.087 E5.12336
G1 X93.893 Y80.896 E5.14525
G1 X94.096 Y80.834 E5.15319
G1 X95.221 Y80.527 E5.19682
G1 X95.807 Y80.387 E5.21937
G1 X96.015 Y80.345 E5.22731
G1 X97.132 Y80.155 E5.2697
G1 X97.738 Y80.072 E5.29259
G1 X97.954 Y80.049 E5.30072
G1 X99.122 Y79.967 E5.34453
G1 X99.694 Y79.946 E5.36595
G1 X99.907 Y79.945 E5.37392
G1 X101.084 Y79.978 E5.41798
G1 X101.676 Y80.014 E5.44017
G1 X101.889 Y80.034 E5.44817
G1 X103.04 Y80.18 E5.49159
G1 X103.621 Y80.273 E5.5136
G1 X103.839 Y80.315 E5.52191
G1 X104.982 Y80.577 E5.56579
G1 X105.53 Y80.721 E5.58699
G1 X105.737 Y80.783 E5.59507
G1 X106.959 Y81.193 E5.6433
G1 X107.581 Y81.432 E5.66823
G1 X108.798 Y81.979 E5.71816
G1 X109.376 Y82.27 E5.74237
G1 X110.392 Y82.852 E5.78619
G1 X110.892 Y83.158 E5.80812
G1 X111.082 Y83.284 E5.81665
G1 X112.019 Y83.95 E5.85967
G1 X112.489 Y84.307 E5.88175
G1 X112.659 Y84.445 E5.88994
G1 X113.537 Y85.208 E5.93347
G1 X113.971 Y85.61 E5.9556
G1 X114.12 Y85.759 E5.96349
G1 X114.927 Y86.612 E6.00742
G1 X115.308 Y87.042 E6.02892
G1 X115.441 Y87.203 E6.03674
G1 X116.175 Y88.149 E6.08154
G1 X116.504 Y88.604 E6.10255
G1 X116.618 Y88.774 E6.11021
G1 X117.253 Y89.783 E6.15481
G1 X117.545 Y90.283 E6.17648
G1 X117.647 Y90.472 E6.18452
G1 X118.17 Y91.519 E6.22831
G1 X118.412 Y92.046 E6.25001
G1 X118.492 Y92.239 E6.25782
G1 X118.913 Y93.34 E6.30193
G1 X119.108 Y93.905 E6.3243
G1 X119.169 Y94.104 E6.33208
G1 X119.474 Y95.219 E6.37534
G1 X119.608 Y95.781 E6.39696
G1 X119.651 Y95.994 E6.40509
G1 X119.849 Y97.162 E6.44941
G1 X119.928 Y97.73 E6.47087
G1 X119.951 Y97.951 E6.47918
G1 X120.033 Y99.127 E6.52329
G1 X120.055 Y99.701 E6.54479
G1 X120.056 Y99.918 E6.55291
G1 X120.024 Y101.067 E6.59592
G1 X119.986 Y101.686 E6.61912
G1 X119.966 Y101.893 E6.6269
G1 X119.808 Y103.134 E6.67371
G1 X119.712 Y103.725 E6.69612
G1 X119.669 Y103.941 E6.70436
G1 X119.445 Y104.901 E6.74124
G1 X119.269 Y105.562 E6.76684
G1 X119.209 Y105.762 E6.77465
G1 X118.812 Y106.946 E6.82138
G1 X118.574 Y107.566 E6.84623
G1 X118.021 Y108.798 E6.89676
G1 X117.73 Y109.376 E6.92097
G1 X117.148 Y110.392 E6.96478
G1 X116.842 Y110.892 E6.98672
G1 X116.716 Y111.082 E6.99525
G1 X116.05 Y112.019 E7.03826
G1 X115.693 Y112.489 E7.06035
G1 X115.555 Y112.659 E7.06854
G1 X114.791 Y113.538 E7.11212
G1 X114.395 Y113.965 E7.13391
G1 X114.245 Y114.116 E7.14187
G1 X113.388 Y114.927 E7.18602
G1 X112.958 Y115.308 E7.20752
G1 X112.797 Y115.441 E7.21533
G1 X111.851 Y116.175 E7.26013
G1 X111.396 Y116.504 E7.28114
G1 X111.226 Y116.618 E7.2888
G1 X110.217 Y117.253 E7.33341
G1 X109.717 Y117.545 E7.35508
G1 X109.528 Y117.647 E7.36311
G1 X108.481 Y118.17 E7.40691
G1 X107.954 Y118.412 E7.4286
G1 X107.761 Y118.492 E7.43642
G1 X106.66 Y118.913 E7.48053
G1 X106.107 Y119.104 E7.50242
G1 X105.908 Y119.164 E7.5102
G1 X104.643 Y119.508 E7.55925
G1 X104.01 Y119.65 E7.58352
G1 X102.819 Y119.852 E7.62872
G1 X102.265 Y119.929 E7.64965
G1 X102.042 Y119.952 E7.65804
G1 X100.887 Y120.032 E7.70136
G1 X100.301 Y120.055 E7.72331
G1 X100.081 Y120.056 E7.73154
G1 X98.933 Y120.024 E7.77451
G1 X98.329 Y119.987 E7.79715
G1 X98.12 Y119.967 E7.80501
G1 X96.943 Y119.818 E7.8494
G1 X96.413 Y119.735 E7.86947
G1 X96.184 Y119.691 E7.8782
G1 X95.021 Y119.424 E7.92285
G1 X94.437 Y119.269 E7.94546
G1 X94.238 Y119.209 E7.95323
G1 X93.16 Y118.849 E7.99576
G1 X92.63 Y118.654 E8.01689
G1 X92.419 Y118.568 E8.02542
G1 X91.202 Y118.021 E8.07534
G1 X90.622 Y117.728 E8.09966
G1 X89.514 Y117.092 E8.14746
G1 X88.918 Y116.716 E8.17383
G1 X87.98 Y116.049 E8.21689
G1 X87.51 Y115.692 E8.23898
G1 X87.34 Y115.554 E8.24717
G1 X86.462 Y114.791 E8.2907
G1 X86.03 Y114.39 E8.31275
G1 X85.88 Y114.241 E8.32066
G1 X85.073 Y113.388 E8.3646
G1 X84.692 Y112.958 E8.3861
G1 X84.559 Y112.797 E8.39391
G1 X83.825 Y111.851 E8.43871
G1 X83.496 Y111.396 E8.45972
G1 X83.381 Y111.224 E8.46746
G1 X82.747 Y110.216 E8.51202
G1 X82.453 Y109.714 E8.53379
G1 X82.352 Y109.526 E8.54177
G1 X81.83 Y108.481 E8.58548
G1 X81.587 Y107.953 E8.60723
G1 X81.506 Y107.759 E8.6151
G1 X81.086 Y106.66 E8.65912
G1 X80.892 Y106.095 E8.68147
G1 X80.831 Y105.896 E8.68926
G1 X80.526 Y104.781 E8.73251
G1 X80.391 Y104.218 E8.75418
G1 X80.347 Y104.001 E8.76246
G1 X80.15 Y102.836 E8.80667
G1 X80.072 Y102.266 E8.8282
G1 X80.049 Y102.047 E8.83644
G1 X79.967 Y100.873 E8.88047
G1 X79.945 Y100.299 E8.90197
G1 X79.944 Y100.082 E8.91009
G1 X79.976 Y98.933 E8.9531
G1 X80.013 Y98.329 E8.97574
G1 X80.033 Y98.12 E8.9836
G1 X80.182 Y96.943 E9.02799
G1 X80.2 Y96.82 E9.03264
G1 X80.301 Y96.202 E9.05607
G1 X80.415 Y95.663 E9.07668
G1 X80.583 Y94.991 E9.1026
G1 X80.73 Y94.439 E9.12398
G1 X80.793 Y94.231 E9.13211
G1 X81.197 Y93.029 E9.17956
G1 X81.437 Y92.407 E9.2045
G1 X81.971 Y91.219 E9.25324
G1 X82.273 Y90.619 E9.27837
G1 X82.853 Y89.607 E9.32202
G1 X83.165 Y89.098 E9.34436
G1 X83.287 Y88.914 E9.35262
G1 X83.949 Y87.982 E9.39539
G1 X84.307 Y87.511 E9.41753
G1 X84.445 Y87.341 E9.42572
G1 X85.209 Y86.462 E9.4693
G1 X85.61 Y86.03 E9.49136
G1 X85.759 Y85.88 E9.49927
G0 F2100 X85.965 Y86.098
G1 F1500 X86.818 Y85.291 E9.5432
G1 X87.241 Y84.917 E9.56433
G1 X87.388 Y84.795 E9.57148
G1 X88.333 Y84.062 E9.61623
G1 X88.779 Y83.74 E9.63681
G1 X88.934 Y83.636 E9.6438
G1 X89.943 Y83.001 E9.68841
G1 X90.433 Y82.714 E9.70965
G1 X90.606 Y82.621 E9.717
G1 X91.653 Y82.098 E9.76079
G1 X92.17 Y81.861 E9.78208
G1 X92.346 Y81.788 E9.78921
G1 X93.447 Y81.367 E9.83331
G1 X93.989 Y81.18 E9.85476
G1 X94.175 Y81.123 E9.86204
G1 X95.3 Y80.816 E9.90568
G1 X95.875 Y80.679 E9.9278
G1 X96.066 Y80.641 E9.93508
G1 X97.183 Y80.451 E9.97748
G1 X97.778 Y80.369 E9.99995
G1 X97.975 Y80.349 E10.00736
G1 X99.143 Y80.267 E10.05117
G1 X99.704 Y80.246 E10.07218
G1 X99.898 Y80.245 E10.07944
G1 X101.075 Y80.278 E10.1235
G1 X101.657 Y80.313 E10.14531
G1 X101.851 Y80.332 E10.15261
G1 X103.002 Y80.478 E10.19602
G1 X103.573 Y80.569 E10.21765
G1 X103.772 Y80.608 E10.22524
G1 X104.915 Y80.87 E10.26912
G1 X105.453 Y81.011 E10.28993
G1 X105.642 Y81.067 E10.29731
G1 X106.761 Y81.441 E10.34145
G1 X107.263 Y81.626 E10.36147
G1 X107.458 Y81.706 E10.36936
G1 X108.666 Y82.249 E10.41891
G1 X109.227 Y82.531 E10.44241
G1 X110.329 Y83.164 E10.48996
G1 X110.908 Y83.528 E10.51555
G1 X111.845 Y84.194 E10.55857
G1 X112.307 Y84.545 E10.58028
G1 X112.462 Y84.671 E10.58775
G1 X113.34 Y85.434 E10.63128
G1 X113.766 Y85.829 E10.65301
G1 X113.902 Y85.965 E10.66021
G1 X114.709 Y86.818 E10.70415
G1 X115.083 Y87.24 E10.72525
G1 X115.204 Y87.387 E10.73237
G1 X115.938 Y88.333 E10.77717
G1 X116.26 Y88.779 E10.79776
G1 X116.364 Y88.934 E10.80474
G1 X116.999 Y89.943 E10.84935
G1 X117.286 Y90.433 E10.8706
G1 X117.379 Y90.606 E10.87795
G1 X117.902 Y91.653 E10.92174
G1 X118.139 Y92.17 E10.94302
G1 X118.212 Y92.346 E10.95015
G1 X118.633 Y93.447 E10.99425
G1 X118.824 Y94.002 E11.01622
G1 X118.879 Y94.183 E11.02329
G1 X119.184 Y95.298 E11.06655
G1 X119.316 Y95.85 E11.08779
G1 X119.356 Y96.045 E11.09523
G1 X119.554 Y97.213 E11.13956
G1 X119.631 Y97.77 E11.1606
G1 X119.651 Y97.972 E11.1682
G1 X119.739 Y99.256 E11.21635
G1 X119.756 Y99.91 E11.24083
G1 X119.724 Y101.059 E11.28384
G1 X119.686 Y101.666 E11.3066
G1 X119.668 Y101.855 E11.3137
G1 X119.512 Y103.09 E11.36028
G1 X119.416 Y103.676 E11.3825
G1 X119.377 Y103.873 E11.39001
G1 X119.153 Y104.833 E11.4269
G1 X119.128 Y104.933 E11.43076
G1 X118.98 Y105.485 E11.45214
G1 X118.925 Y105.667 E11.45926
G1 X118.531 Y106.842 E11.50563
G1 X118.3 Y107.444 E11.52975
G1 X117.797 Y108.568 E11.57583
G1 X117.565 Y109.046 E11.59571
G1 X117.469 Y109.227 E11.60338
G1 X116.836 Y110.329 E11.65093
G1 X116.472 Y110.908 E11.67652
G1 X115.806 Y111.845 E11.71954
G1 X115.455 Y112.307 E11.74125
G1 X115.328 Y112.462 E11.74874
G1 X114.489 Y113.426 E11.79656
G1 X114.039 Y113.898 E11.82096
G1 X113.182 Y114.709 E11.86511
G1 X112.76 Y115.083 E11.88621
G1 X112.613 Y115.204 E11.89334
G1 X111.667 Y115.938 E11.93814
G1 X111.221 Y116.26 E11.95872
G1 X111.066 Y116.364 E11.96571
G1 X110.057 Y116.999 E12.01031
G1 X109.567 Y117.286 E12.03156
G1 X109.394 Y117.379 E12.03891
G1 X108.347 Y117.902 E12.0827
G1 X107.83 Y118.139 E12.10398
G1 X107.654 Y118.212 E12.11111
G1 X106.553 Y118.633 E12.15522
G1 X106.011 Y118.819 E12.17666
G1 X105.829 Y118.875 E12.18379
G1 X104.675 Y119.19 E12.22855
G1 X104.16 Y119.314 E12.24837
G1 X103.96 Y119.355 E12.25601
G1 X102.769 Y119.557 E12.30121
G1 X102.225 Y119.632 E12.32175
G1 X102.022 Y119.652 E12.32939
G1 X100.762 Y119.738 E12.37664
G1 X100.089 Y119.756 E12.40183
G1 X98.941 Y119.724 E12.44481
G1 X98.348 Y119.687 E12.46704
G1 X98.157 Y119.669 E12.47422
G1 X96.88 Y119.506 E12.52239
G1 X96.251 Y119.398 E12.54627
G1 X95.088 Y119.131 E12.59092
G1 X94.514 Y118.979 E12.61313
G1 X94.333 Y118.925 E12.6202
G1 X93.255 Y118.565 E12.66273
G1 X92.734 Y118.373 E12.6835
G1 X92.542 Y118.294 E12.69127
G1 X91.334 Y117.751 E12.74083
G1 X90.771 Y117.468 E12.76441
G1 X89.671 Y116.836 E12.81188
G1 X89.092 Y116.471 E12.83749
G1 X88.068 Y115.741 E12.88454
G1 X87.537 Y115.328 E12.90971
G1 X86.659 Y114.565 E12.95324
G1 X86.235 Y114.171 E12.97489
G1 X86.098 Y114.035 E12.98212
G1 X85.291 Y113.182 E13.02606
G1 X84.917 Y112.76 E13.04715
G1 X84.796 Y112.613 E13.05428
G1 X84.062 Y111.667 E13.09908
G1 X83.74 Y111.221 E13.11966
G1 X83.635 Y111.064 E13.12673
G1 X83.001 Y110.056 E13.17129
G1 X82.713 Y109.564 E13.19262
G1 X82.62 Y109.392 E13.19994
G1 X82.098 Y108.347 E13.24364
G1 X81.861 Y107.829 E13.26496
G1 X81.787 Y107.652 E13.27214
G1 X81.367 Y106.553 E13.31616
G1 X81.176 Y105.998 E13.33812
G1 X81.121 Y105.817 E13.3452
G1 X80.788 Y104.594 E13.39263
G1 X80.643 Y103.951 E13.41729
G1 X80.446 Y102.786 E13.4615
G1 X80.369 Y102.226 E13.48265
G1 X80.349 Y102.026 E13.49018
