;FLAVOR:Marlin
;TIME:5114
;Filament used: 4.39599m
;Layer height: 0.2
;MINX:65.55
;MINY:78.05
;MINZ:0.3
;MAXX:134.45
;MAXY:121.95
;MAXZ:24.9
;Generated with Cura_SteamEngine 4.11.0
M140 S60
M105
M190 S60
M104 S220
M105
M109 S220
M82 ;absolute extrusion mode
G28 ;Home
G1 Z15.0 F6000 ;Move the platform down 15mm
;Prime the extruder
G92 E0
G1 F200 E3
G92 E0
G92 E0
G92 E0
G1 F1500 E-6.5
;LAYER_COUNT:125
;LAYER:0
M107
G0 F2100 X67.607 Y79.03 Z0.3
;TYPE:SKIRT
G1 F1500 E0
G1 X68.011 Y78.695 E0.01964
G1 X68.461 Y78.425 E0.03927
G1 X68.947 Y78.226 E0.05892
G1 X69.457 Y78.104 E0.07855
G1 X70.037 Y78.057 E0.10032
G1 X70.52 Y78.05 E0.11839
G1 X129.342 Y78.05 E2.31937
G1 X130.043 Y78.06 E2.34561
G1 X130.566 Y78.108 E2.36526
G1 X131.076 Y78.234 E2.38492
G1 X131.56 Y78.436 E2.40454
G1 X132.008 Y78.709 E2.42417
G1 X132.485 Y79.114 E2.44758
G1 X132.944 Y79.564 E2.47164
G1 X133.469 Y80.106 E2.49987
G1 X133.804 Y80.51 E2.51951
G1 X134.074 Y80.96 E2.53914
G1 X134.273 Y81.446 E2.55879
G1 X134.396 Y81.957 E2.57846
G1 X134.443 Y82.538 E2.60027
G1 X134.45 Y83.021 E2.61835
G1 X134.45 Y116.842 E3.88385
G1 X134.44 Y117.544 E3.91012
G1 X134.392 Y118.067 E3.92977
G1 X134.266 Y118.577 E3.94943
G1 X134.064 Y119.061 E3.96905
G1 X133.791 Y119.509 E3.98868
G1 X133.378 Y119.993 E4.01249
G1 X132.929 Y120.451 E4.03649
G1 X132.397 Y120.967 E4.06422
G1 X131.993 Y121.303 E4.08388
G1 X131.543 Y121.573 E4.10352
G1 X131.057 Y121.772 E4.12317
G1 X130.547 Y121.896 E4.14281
G1 X129.963 Y121.943 E4.16473
G1 X129.48 Y121.95 E4.1828
G1 X70.658 Y121.95 E6.38378
G1 X69.956 Y121.94 E6.41005
G1 X69.433 Y121.892 E6.42971
G1 X68.923 Y121.766 E6.44936
G1 X68.439 Y121.564 E6.46899
G1 X67.991 Y121.291 E6.48862
G1 X67.507 Y120.878 E6.51242
G1 X67.43 Y120.805 E6.51639
G1 X66.993 Y120.373 E6.53939
G1 X66.529 Y119.893 E6.56437
G1 X66.194 Y119.489 E6.58401
G1 X65.924 Y119.038 E6.60367
G1 X65.726 Y118.552 E6.62331
G1 X65.604 Y118.042 E6.64293
G1 X65.557 Y117.463 E6.66467
G1 X65.55 Y116.98 E6.68274
G1 X65.55 Y83.158 E7.94828
G1 X65.56 Y82.456 E7.97455
G1 X65.608 Y81.933 E7.9942
G1 X65.734 Y81.423 E8.01386
G1 X65.936 Y80.939 E8.03348
G1 X66.209 Y80.491 E8.05311
G1 X66.625 Y80.003 E8.07711
G1 X67.062 Y79.558 E8.10045
G1 X67.607 Y79.03 E8.12884
G0 F2100 X67.815 Y79.246
G1 F1500 X68.202 Y78.927 E8.14761
G1 X68.635 Y78.673 E8.16639
G1 X69.103 Y78.492 E8.18516
G1 X69.593 Y78.387 E8.20392
G1 X70.114 Y78.355 E8.22345
G1 X70.523 Y78.35 E8.23875
G1 X129.338 Y78.35 E10.43947
G1 X130.039 Y78.36 E10.4657
G1 X130.538 Y78.407 E10.48446
G1 X131.024 Y78.533 E10.50324
G1 X131.483 Y78.734 E10.52199
G1 X131.905 Y79.006 E10.54078
G1 X132.282 Y79.335 E10.5595
G1 X132.767 Y79.813 E10.58498
G1 X133.253 Y80.315 E10.61113
G1 X133.572 Y80.702 E10.62989
G1 X133.826 Y81.135 E10.64868
G1 X134.008 Y81.602 E10.66743
G1 X134.113 Y82.093 E10.68622
G1 X134.145 Y82.615 E10.70579
G1 X134.15 Y83.024 E10.72109
G1 X134.15 Y116.838 E11.98633
G1 X134.14 Y117.54 E12.0126
G1 X134.093 Y118.039 E12.03135
G1 X133.967 Y118.525 E12.05014
G1 X133.766 Y118.984 E12.06889
G1 X133.494 Y119.406 E12.08768
G1 X133.158 Y119.789 E12.10674
G1 X132.682 Y120.272 E12.13211
G1 X132.188 Y120.751 E12.15786
G1 X131.801 Y121.071 E12.17665
G1 X131.368 Y121.325 E12.19544
G1 X130.901 Y121.507 E12.21419
G1 X130.411 Y121.612 E12.23294
G1 X129.886 Y121.645 E12.25262
G1 X129.477 Y121.65 E12.26793
G1 X70.662 Y121.65 E14.46865
G1 X69.96 Y121.64 E14.49492
G1 X69.461 Y121.593 E14.51367
G1 X68.975 Y121.467 E14.53246
G1 X68.516 Y121.266 E14.55121
G1 X68.094 Y120.994 E14.56999
G1 X67.711 Y120.658 E14.58906
G1 X67.64 Y120.591 E14.59271
G1 X67.209 Y120.164 E14.61541
G1 X66.745 Y119.684 E14.64039
G1 X66.426 Y119.297 E14.65916
G1 X66.173 Y118.864 E14.67792
G1 X65.992 Y118.396 E14.6967
G1 X65.887 Y117.906 E14.71545
G1 X65.855 Y117.386 E14.73494
G1 X65.85 Y116.977 E14.75025
G1 X65.85 Y83.162 E16.01553
G1 X65.86 Y82.46 E16.0418
G1 X65.907 Y81.961 E16.06055
G1 X66.033 Y81.475 E16.07934
G1 X66.234 Y81.016 E16.09808
G1 X66.506 Y80.594 E16.11687
G1 X66.845 Y80.208 E16.13609
G1 X67.276 Y79.769 E16.15911
G1 X67.815 Y79.246 E16.18721
G1 F1500 E9.68721
;MESH:Stepper_Motor_Mount.stl
G0 F2100 X69.427 Y81.203
G0 X70.193 Y81.968
G0 X71.679 Y88.406
G0 X71.971 Y88.946
G0 X73.419 Y90.192
;TYPE:WALL-INNER
G1 F1500 E16.18721
G1 X74.093 Y90.253 E16.21254
G1 X74.762 Y90.148 E16.23788
G1 X75.385 Y89.881 E16.26324
G1 X75.923 Y89.471 E16.28855
G1 X76.347 Y88.943 E16.31389
G1 X76.626 Y88.327 E16.33919
G1 X76.748 Y87.679 E16.36386
G1 X76.71 Y87.004 E16.38916
G1 X76.506 Y86.355 E16.41461
G1 X76.141 Y85.767 E16.44051
G1 X75.652 Y85.298 E16.46586
G1 X75.066 Y84.96 E16.49118
G1 X74.43 Y84.782 E16.51589
G1 X74.061 Y84.749 E16.52975
G1 X73.402 Y84.81 E16.55451
G1 X72.765 Y85.039 E16.57984
G1 X72.203 Y85.413 E16.6051
G1 X71.748 Y85.915 E16.63045
G1 X71.429 Y86.514 E16.65585
G1 X71.266 Y87.17 E16.68114
G1 X71.267 Y87.847 E16.70647
G1 X71.434 Y88.502 E16.73176
G1 X71.757 Y89.098 E16.75713
G1 X72.215 Y89.598 E16.7825
G1 X72.779 Y89.969 E16.80776
G1 X73.419 Y90.192 E16.83312
G0 F2100 X71.527 Y112.202
G0 X71.528 Y112.814
G0 X71.679 Y113.406
G0 X71.971 Y113.946
G0 X73.419 Y115.192
G1 F1500 X74.093 Y115.253 E16.85844
G1 X74.762 Y115.148 E16.88378
G1 X75.385 Y114.881 E16.90914
G1 X75.923 Y114.471 E16.93445
G1 X76.347 Y113.943 E16.95979
G1 X76.626 Y113.327 E16.98509
G1 X76.748 Y112.679 E17.00977
G1 X76.71 Y112.004 E17.03506
G1 X76.506 Y111.355 E17.06052
G1 X76.141 Y110.767 E17.08641
G1 X75.652 Y110.298 E17.11177
G1 X75.066 Y109.96 E17.13708
G1 X74.43 Y109.782 E17.16179
G1 X74.061 Y109.749 E17.17565
G1 X73.402 Y109.81 E17.20042
G1 X72.765 Y110.039 E17.22575
G1 X72.203 Y110.413 E17.25101
G1 X71.748 Y110.915 E17.27636
G1 X71.429 Y111.514 E17.30175
G1 X71.266 Y112.17 E17.32704
G1 X71.267 Y112.847 E17.35237
G1 X71.434 Y113.502 E17.37767
G1 X71.757 Y114.098 E17.40303
G1 X72.215 Y114.598 E17.4284
G1 X72.779 Y114.969 E17.45366
G1 X73.419 Y115.192 E17.47902
G0 F2100 X125.419 Y115.192
G1 F1500 X126.093 Y115.253 E17.50435
G1 X126.762 Y115.148 E17.52968
G1 X127.385 Y114.881 E17.55505
G1 X127.923 Y114.471 E17.58036
G1 X128.347 Y113.943 E17.60569
G1 X128.626 Y113.327 E17.631
G1 X128.748 Y112.679 E17.65567
G1 X128.71 Y112.004 E17.68097
G1 X128.506 Y111.355 E17.70642
G1 X128.141 Y110.767 E17.73232
G1 X127.652 Y110.298 E17.75767
G1 X127.066 Y109.96 E17.78298
G1 X126.43 Y109.782 E17.8077
G1 X126.061 Y109.749 E17.82156
G1 X125.402 Y109.81 E17.84632
G1 X124.765 Y110.039 E17.87165
G1 X124.203 Y110.413 E17.89691
G1 X123.748 Y110.915 E17.92226
G1 X123.429 Y111.514 E17.94765
G1 X123.266 Y112.17 E17.97295
G1 X123.267 Y112.847 E17.99828
G1 X123.434 Y113.502 E18.02357
G1 X123.757 Y114.098 E18.04894
G1 X124.215 Y114.598 E18.07431
G1 X124.779 Y114.969 E18.09957
G1 X125.419 Y115.192 E18.12493
G0 F2100 X129.69 Y117.75
G1 F1500 X70.31 Y117.75 E20.34679
G1 X69.75 Y117.19 E20.37642
G1 X69.75 Y82.81 E21.66284
G1 X70.31 Y82.25 E21.69247
G1 X129.69 Y82.25 E23.91433
G1 X130.25 Y82.81 E23.94397
G1 X130.25 Y117.19 E25.23038
G1 X129.69 Y117.75 E25.26002
G0 F2100 X125.419 Y90.192
G1 F1500 X126.093 Y90.253 E25.28534
G1 X126.762 Y90.148 E25.31068
G1 X127.385 Y89.881 E25.33604
G1 X127.923 Y89.471 E25.36135
G1 X128.347 Y88.943 E25.38669
G1 X128.626 Y88.327 E25.41199
G1 X128.748 Y87.679 E25.43667
G1 X128.71 Y87.004 E25.46196
G1 X128.506 Y86.355 E25.48742
G1 X128.141 Y85.767 E25.51331
G1 X127.652 Y85.298 E25.53867
G1 X127.066 Y84.96 E25.56398
G1 X126.43 Y84.782 E25.58869
G1 X126.061 Y84.749 E25.60255
G1 X125.402 Y84.81 E25.62732
G1 X124.765 Y85.039 E25.65265
G1 X124.203 Y85.413 E25.6779
G1 X123.748 Y85.915 E25.70326
G1 X123.429 Y86.514 E25.72865
G1 X123.266 Y87.17 E25.75394
G1 X123.267 Y87.847 E25.77927
G1 X123.434 Y88.502 E25.80457
G1 X123.757 Y89.098 E25.82993
G1 X124.215 Y89.598 E25.8553
G1 X124.779 Y89.969 E25.88056
G1 X125.419 Y90.192 E25.90592
G0 F2100 X125.483 Y89.897
G1 F1500 X126.083 Y89.951 E25.92846
G1 X126.678 Y89.857 E25.951
G1 X127.233 Y89.62 E25.97358
G1 X127.712 Y89.255 E25.99612
G1 X128.089 Y88.785 E26.01866
G1 X128.338 Y88.236 E26.04122
G1 X128.446 Y87.659 E26.06318
G1 X128.413 Y87.058 E26.08571
G1 X128.231 Y86.481 E26.10834
G1 X127.906 Y85.957 E26.13142
G1 X127.471 Y85.54 E26.15396
G1 X126.949 Y85.239 E26.17651
G1 X126.376 Y85.078 E26.19878
G1 X126.062 Y85.05 E26.21058
G1 X125.468 Y85.105 E26.2329
G1 X124.901 Y85.309 E26.25545
G1 X124.4 Y85.642 E26.27795
G1 X123.995 Y86.089 E26.30052
G1 X123.711 Y86.622 E26.32312
G1 X123.566 Y87.206 E26.34564
G1 X123.567 Y87.809 E26.3682
G1 X123.716 Y88.392 E26.39072
G1 X124.003 Y88.923 E26.4133
G1 X124.411 Y89.368 E26.43589
G1 X124.913 Y89.698 E26.45837
G1 X125.483 Y89.897 E26.48096
G0 F2100 X125.462 Y89.994
G0 X123.527 Y112.202
G0 X123.528 Y112.814
G0 X123.679 Y113.406
G0 X123.971 Y113.946
G0 X124.386 Y114.398
G0 X125.462 Y114.994
G0 X125.483 Y114.897
G1 F1500 X126.083 Y114.951 E26.5035
G1 X126.678 Y114.857 E26.52604
G1 X127.233 Y114.62 E26.54862
G1 X127.712 Y114.255 E26.57116
G1 X128.089 Y113.785 E26.5937
G1 X128.338 Y113.236 E26.61626
G1 X128.446 Y112.659 E26.63822
G1 X128.413 Y112.058 E26.66074
G1 X128.231 Y111.481 E26.68338
G1 X127.906 Y110.957 E26.70645
G1 X127.471 Y110.54 E26.729
G1 X126.949 Y110.239 E26.75155
G1 X126.376 Y110.078 E26.77382
G1 X126.062 Y110.05 E26.78562
G1 X125.468 Y110.105 E26.80794
G1 X124.901 Y110.309 E26.83048
G1 X124.4 Y110.642 E26.85299
G1 X123.995 Y111.089 E26.87556
G1 X123.711 Y111.622 E26.89816
G1 X123.566 Y112.206 E26.92068
G1 X123.567 Y112.809 E26.94324
G1 X123.716 Y113.392 E26.96575
G1 X124.003 Y113.923 E26.98834
G1 X124.411 Y114.368 E27.01093
G1 X124.913 Y114.698 E27.03341
G1 X125.483 Y114.897 E27.056
G0 F2100 X125.462 Y114.994
G0 X129.776 Y117.958
G0 X129.814 Y118.05
G1 F1500 X70.186 Y118.05 E29.28714
G1 X69.45 Y117.314 E29.32609
G1 X69.45 Y82.686 E30.62178
G1 X70.186 Y81.95 E30.66073
G1 X129.814 Y81.95 E32.89187
G1 X130.55 Y82.686 E32.93082
G1 X130.55 Y117.314 E34.22652
G1 X129.814 Y118.05 E34.26546
G0 F2100 X129.776 Y117.958
G0 X73.462 Y114.994
G0 X73.483 Y114.897
G1 F1500 X74.083 Y114.951 E34.288
G1 X74.678 Y114.857 E34.31054
G1 X75.233 Y114.62 E34.33312
G1 X75.712 Y114.255 E34.35566
G1 X76.089 Y113.785 E34.3782
G1 X76.338 Y113.236 E34.40076
G1 X76.446 Y112.659 E34.42272
G1 X76.413 Y112.058 E34.44525
G1 X76.231 Y111.481 E34.46788
G1 X75.906 Y110.957 E34.49096
G1 X75.471 Y110.54 E34.5135
G1 X74.949 Y110.239 E34.53605
G1 X74.376 Y110.078 E34.55832
G1 X74.062 Y110.05 E34.57012
G1 X73.468 Y110.105 E34.59244
G1 X72.901 Y110.309 E34.61499
G1 X72.4 Y110.642 E34.63749
G1 X71.995 Y111.089 E34.66006
G1 X71.711 Y111.622 E34.68266
G1 X71.566 Y112.206 E34.70518
G1 X71.567 Y112.809 E34.72774
G1 X71.716 Y113.392 E34.75026
G1 X72.003 Y113.923 E34.77284
G1 X72.411 Y114.368 E34.79543
G1 X72.913 Y114.698 E34.81791
G1 X73.483 Y114.897 E34.8405
G0 F2100 X73.462 Y114.994
G0 X72.896 Y114.733
G0 X72.386 Y114.398
G0 X71.971 Y113.946
G0 X71.679 Y113.406
G0 X71.528 Y112.814
G0 X73.462 Y89.994
G0 X73.483 Y89.897
G1 F1500 X74.083 Y89.951 E34.86304
G1 X74.678 Y89.857 E34.88558
G1 X75.233 Y89.62 E34.90816
G1 X75.712 Y89.255 E34.9307
G1 X76.089 Y88.785 E34.95324
G1 X76.338 Y88.236 E34.9758
G1 X76.446 Y87.659 E34.99776
G1 X76.413 Y87.058 E35.02028
G1 X76.231 Y86.481 E35.04292
G1 X75.906 Y85.957 E35.06599
G1 X75.471 Y85.54 E35.08854
G1 X74.949 Y85.239 E35.11109
G1 X74.376 Y85.078 E35.13336
G1 X74.062 Y85.05 E35.14516
G1 X73.468 Y85.105 E35.16748
G1 X72.901 Y85.309 E35.19002
G1 X72.4 Y85.642 E35.21253
G1 X71.995 Y86.089 E35.2351
G1 X71.711 Y86.622 E35.2577
G1 X71.566 Y87.206 E35.28022
G1 X71.567 Y87.809 E35.30278
G1 X71.716 Y88.392 E35.32529
G1 X72.003 Y88.923 E35.34788
G1 X72.411 Y89.368 E35.37047
G1 X72.913 Y89.698 E35.39295
G1 X73.483 Y89.897 E35.41554
G0 F2100 X73.536 Y89.651
;TYPE:WALL-OUTER
G1 F1500 X74.075 Y89.699 E35.43579
G1 X74.608 Y89.615 E35.45598
G1 X75.106 Y89.402 E35.47624
G1 X75.536 Y89.075 E35.49646
G1 X75.874 Y88.653 E35.51669
G1 X76.098 Y88.16 E35.53695
G1 X76.195 Y87.643 E35.55663
G1 X76.165 Y87.103 E35.57687
G1 X76.002 Y86.586 E35.59715
G1 X75.71 Y86.116 E35.61786
G1 X75.32 Y85.741 E35.6381
G1 X74.851 Y85.471 E35.65835
G1 X74.331 Y85.325 E35.67856
G1 X74.062 Y85.301 E35.68867
G1 X73.523 Y85.351 E35.70892
G1 X73.014 Y85.534 E35.72916
G1 X72.564 Y85.833 E35.74938
G1 X72.201 Y86.234 E35.76961
G1 X71.946 Y86.712 E35.78989
G1 X71.816 Y87.236 E35.81009
G1 X71.817 Y87.777 E35.83033
G1 X71.951 Y88.3 E35.85053
G1 X72.208 Y88.777 E35.87081
G1 X72.574 Y89.176 E35.89106
G1 X73.025 Y89.472 E35.91125
G1 X73.536 Y89.651 E35.93151
G0 F2100 X73.735 Y89.668
G0 X73.704 Y90.016
G0 X71.527 Y112.202
G0 X71.528 Y112.814
G0 X71.679 Y113.406
G0 X71.971 Y113.946
G0 X72.386 Y114.398
G0 X73.505 Y114.998
G0 X73.536 Y114.651
G1 F1500 X74.075 Y114.699 E35.95176
G1 X74.608 Y114.615 E35.97195
G1 X75.106 Y114.402 E35.99221
G1 X75.536 Y114.075 E36.01243
G1 X75.874 Y113.653 E36.03266
G1 X76.098 Y113.16 E36.05292
G1 X76.195 Y112.643 E36.0726
G1 X76.165 Y112.103 E36.09284
G1 X76.002 Y111.586 E36.11312
G1 X75.71 Y111.116 E36.13383
G1 X75.32 Y110.741 E36.15407
G1 X74.851 Y110.471 E36.17432
G1 X74.331 Y110.325 E36.19453
G1 X74.062 Y110.301 E36.20464
G1 X73.523 Y110.351 E36.22489
G1 X73.014 Y110.534 E36.24513
G1 X72.564 Y110.833 E36.26535
G1 X72.201 Y111.234 E36.28558
G1 X71.946 Y111.712 E36.30586
G1 X71.816 Y112.236 E36.32606
G1 X71.817 Y112.777 E36.3463
G1 X71.951 Y113.3 E36.3665
G1 X72.208 Y113.777 E36.38678
G1 X72.574 Y114.176 E36.40704
G1 X73.025 Y114.472 E36.42722
G1 X73.536 Y114.651 E36.44748
G0 F2100 X73.735 Y114.668
G0 X73.704 Y115.016
G0 X125.505 Y114.998
G0 X125.536 Y114.651
G1 F1500 X126.075 Y114.699 E36.46773
G1 X126.608 Y114.615 E36.48792
G1 X127.106 Y114.402 E36.50818
G1 X127.536 Y114.075 E36.5284
G1 X127.874 Y113.653 E36.54863
G1 X128.098 Y113.16 E36.56889
G1 X128.195 Y112.643 E36.58857
G1 X128.165 Y112.103 E36.60881
G1 X128.002 Y111.586 E36.62909
G1 X127.71 Y111.116 E36.6498
G1 X127.32 Y110.741 E36.67004
G1 X126.851 Y110.471 E36.69029
G1 X126.331 Y110.325 E36.7105
G1 X126.062 Y110.301 E36.72061
G1 X125.523 Y110.351 E36.74086
G1 X125.014 Y110.534 E36.7611
G1 X124.564 Y110.833 E36.78132
G1 X124.201 Y111.234 E36.80155
G1 X123.946 Y111.712 E36.82183
G1 X123.816 Y112.236 E36.84203
G1 X123.817 Y112.777 E36.86227
G1 X123.951 Y113.3 E36.88247
G1 X124.208 Y113.777 E36.90275
G1 X124.574 Y114.176 E36.92301
G1 X125.025 Y114.472 E36.94319
G1 X125.536 Y114.651 E36.96345
G0 F2100 X125.735 Y114.668
G0 X125.704 Y115.016
G0 X129.776 Y117.958
G0 X129.918 Y118.3
G1 F1500 X70.082 Y118.3 E39.20237
G1 X69.2 Y117.418 E39.24905
G1 X69.2 Y82.582 E40.55253
G1 X70.082 Y81.7 E40.5992
G1 X129.918 Y81.7 E42.83812
G1 X130.8 Y82.582 E42.88479
G1 X130.8 Y117.418 E44.18828
G1 X129.918 Y118.3 E44.23495
G0 F2100 X129.718 Y118.3
G0 X129.718 Y117.95
G0 X125.505 Y89.998
G0 X125.536 Y89.651
G1 F1500 X126.075 Y89.699 E44.2552
G1 X126.608 Y89.615 E44.27539
G1 X127.106 Y89.402 E44.29565
G1 X127.536 Y89.075 E44.31587
G1 X127.874 Y88.653 E44.3361
G1 X128.098 Y88.16 E44.35636
G1 X128.195 Y87.643 E44.37604
G1 X128.165 Y87.103 E44.39628
G1 X128.002 Y86.586 E44.41656
G1 X127.71 Y86.116 E44.43726
G1 X127.32 Y85.741 E44.45751
G1 X126.851 Y85.471 E44.47776
G1 X126.331 Y85.325 E44.49797
G1 X126.062 Y85.301 E44.50807
G1 X125.523 Y85.351 E44.52833
G1 X125.014 Y85.534 E44.54857
G1 X124.564 Y85.833 E44.56878
G1 X124.201 Y86.234 E44.58902
G1 X123.946 Y86.712 E44.60929
G1 X123.816 Y87.236 E44.6295
G1 X123.817 Y87.777 E44.64974
G1 X123.951 Y88.3 E44.66994
G1 X124.208 Y88.777 E44.69021
G1 X124.574 Y89.176 E44.71047
G1 X125.025 Y89.472 E44.73066
G1 X125.536 Y89.651 E44.75092
G0 F2100 X125.735 Y89.668
G0 X125.357 Y90.478
;TYPE:SKIN
G1 F1500 X126.103 Y90.545 E44.77894
G1 X126.843 Y90.429 E44.80697
G1 X127.532 Y90.134 E44.83502
G1 X128.126 Y89.68 E44.86299
G1 X128.596 Y89.096 E44.89104
G1 X128.904 Y88.414 E44.91904
G1 X129.04 Y87.698 E44.94631
G1 X128.998 Y86.952 E44.97427
G1 X128.771 Y86.233 E45.00248
G1 X128.368 Y85.583 E45.0311
G1 X127.828 Y85.064 E45.05912
G1 X127.18 Y84.691 E45.0871
G1 X126.482 Y84.496 E45.11422
G1 X126.061 Y84.457 E45.13004
G1 X125.338 Y84.524 E45.15721
G1 X124.634 Y84.778 E45.18521
G1 X124.012 Y85.191 E45.21315
